material/.icons/material/fire.svg

<svg xmlns="http://www.w3.org/2000/svg" viewBox="0 0 24 24"><path d="M17.55 11.2c-.23-.3-.5-.56-.76-.82-.65-.6-1.4-1.03-2.03-1.66C13.3 7.26 13 4.85 13.91 3c-.91.23-1.75.75-2.45 1.32-2.54 2.08-3.54 5.75-2.34 8.9.04.1.08.2.08.33 0 .22-.15.42-.35.5-.22.1-.46.04-.64-.12a.83.83 0 01-.15-.17c-1.1-1.43-1.28-3.48-.53-5.12C5.89 10 5 12.3 5.14 14.47c.04.5.1 1 .27 1.5.14.6.4 1.2.72 1.73 1.04 1.73 2.87 2.97 4.84 3.22 2.1.27 4.35-.12 5.96-1.6 1.8-1.66 2.45-4.32 1.5-6.6l-.13-.26c-.2-.46-.47-.87-.8-1.25l.05-.01m-3.1 6.3c-.28.24-.73.5-1.08.6-1.1.4-2.2-.16-2.87-.82 1.19-.28 1.89-1.16 2.09-2.05.17-.8-.14-1.46-.27-2.23-.12-.74-.1-1.37.18-2.06.17.38.37.76.6 1.06.76 1 1.95 1.44 2.2 2.8.04.14.06.28.06.43.03.82-.32 1.72-.92 2.27h.01z"/></svg>

<?xml version="1.0" encoding="UTF-8"?><!DOCTYPE svg PUBLIC "-//W3C//DTD SVG 1.1//EN" "http://www.w3.org/Graphics/SVG/1.1/DTD/svg11.dtd"><svg xmlns="http://www.w3.org/2000/svg" xmlns:xlink="http://www.w3.org/1999/xlink" version="1.1" id="mdi-fire" width="24" height="24" viewBox="0 0 24 24"><path d="M17.55,11.2C17.32,10.9 17.05,10.64 16.79,10.38C16.14,9.78 15.39,9.35 14.76,8.72C13.3,7.26 13,4.85 13.91,3C13,3.23 12.16,3.75 11.46,4.32C8.92,6.4 7.92,10.07 9.12,13.22C9.16,13.32 9.2,13.42 9.2,13.55C9.2,13.77 9.05,13.97 8.85,14.05C8.63,14.15 8.39,14.09 8.21,13.93C8.15,13.88 8.11,13.83 8.06,13.76C6.96,12.33 6.78,10.28 7.53,8.64C5.89,10 5,12.3 5.14,14.47C5.18,14.97 5.24,15.47 5.41,15.97C5.55,16.57 5.81,17.17 6.13,17.7C7.17,19.43 9,20.67 10.97,20.92C13.07,21.19 15.32,20.8 16.93,19.32C18.73,17.66 19.38,15 18.43,12.72L18.3,12.46C18.1,12 17.83,11.59 17.5,11.21L17.55,11.2M14.45,17.5C14.17,17.74 13.72,18 13.37,18.1C12.27,18.5 11.17,17.94 10.5,17.28C11.69,17 12.39,16.12 12.59,15.23C12.76,14.43 12.45,13.77 12.32,13C12.2,12.26 12.22,11.63 12.5,10.94C12.67,11.32 12.87,11.7 13.1,12C13.86,13 15.05,13.44 15.3,14.8C15.34,14.94 15.36,15.08 15.36,15.23C15.39,16.05 15.04,16.95 14.44,17.5H14.45Z" /></svg>
